images/51095027.svg

<?xml version="1.0" encoding="UTF-8"?>
<svg xmlns="http://www.w3.org/2000/svg" xmlns:xlink="http://www.w3.org/1999/xlink" width="300pt" height="300pt" viewBox="0 0 300 300" version="1.1">
<defs>
<g>
<symbol overflow="visible" id="glyph0-0">
<path style="stroke:none;" d="M 0.453125 1.59375 L 0.453125 -6.34375 L 4.953125 -6.34375 L 4.953125 1.59375 Z M 0.953125 1.09375 L 4.453125 1.09375 L 4.453125 -5.84375 L 0.953125 -5.84375 Z M 0.953125 1.09375 "/>
</symbol>
<symbol overflow="visible" id="glyph0-1">
<path style="stroke:none;" d="M 4.8125 -6.34375 L 4.8125 -5.484375 C 4.476562 -5.640625 4.160156 -5.753906 3.859375 -5.828125 C 3.566406 -5.910156 3.28125 -5.953125 3 -5.953125 C 2.507812 -5.953125 2.132812 -5.859375 1.875 -5.671875 C 1.613281 -5.484375 1.484375 -5.21875 1.484375 -4.875 C 1.484375 -4.582031 1.570312 -4.363281 1.75 -4.21875 C 1.925781 -4.070312 2.253906 -3.953125 2.734375 -3.859375 L 3.28125 -3.75 C 3.9375 -3.625 4.421875 -3.398438 4.734375 -3.078125 C 5.054688 -2.765625 5.21875 -2.34375 5.21875 -1.8125 C 5.21875 -1.175781 5.003906 -0.691406 4.578125 -0.359375 C 4.148438 -0.0351562 3.523438 0.125 2.703125 0.125 C 2.390625 0.125 2.054688 0.0859375 1.703125 0.015625 C 1.359375 -0.046875 1 -0.148438 0.625 -0.296875 L 0.625 -1.203125 C 0.976562 -1.003906 1.328125 -0.851562 1.671875 -0.75 C 2.023438 -0.644531 2.367188 -0.59375 2.703125 -0.59375 C 3.203125 -0.59375 3.585938 -0.691406 3.859375 -0.890625 C 4.140625 -1.085938 4.28125 -1.375 4.28125 -1.75 C 4.28125 -2.070312 4.179688 -2.320312 3.984375 -2.5 C 3.785156 -2.675781 3.460938 -2.8125 3.015625 -2.90625 L 2.46875 -3.015625 C 1.8125 -3.148438 1.332031 -3.359375 1.03125 -3.640625 C 0.738281 -3.921875 0.59375 -4.3125 0.59375 -4.8125 C 0.59375 -5.382812 0.796875 -5.835938 1.203125 -6.171875 C 1.609375 -6.515625 2.171875 -6.6875 2.890625 -6.6875 C 3.203125 -6.6875 3.515625 -6.65625 3.828125 -6.59375 C 4.148438 -6.539062 4.476562 -6.457031 4.8125 -6.34375 Z M 4.8125 -6.34375 "/>
</symbol>
<symbol overflow="visible" id="glyph0-2">
<path style="stroke:none;" d="M 3.546875 -5.953125 C 2.898438 -5.953125 2.382812 -5.710938 2 -5.234375 C 1.625 -4.753906 1.4375 -4.101562 1.4375 -3.28125 C 1.4375 -2.445312 1.625 -1.789062 2 -1.3125 C 2.382812 -0.832031 2.898438 -0.59375 3.546875 -0.59375 C 4.191406 -0.59375 4.703125 -0.832031 5.078125 -1.3125 C 5.453125 -1.789062 5.640625 -2.445312 5.640625 -3.28125 C 5.640625 -4.101562 5.453125 -4.753906 5.078125 -5.234375 C 4.703125 -5.710938 4.191406 -5.953125 3.546875 -5.953125 Z M 3.546875 -6.6875 C 4.460938 -6.6875 5.195312 -6.375 5.75 -5.75 C 6.300781 -5.132812 6.578125 -4.3125 6.578125 -3.28125 C 6.578125 -2.238281 6.300781 -1.410156 5.75 -0.796875 C 5.195312 -0.179688 4.460938 0.125 3.546875 0.125 C 2.617188 0.125 1.878906 -0.179688 1.328125 -0.796875 C 0.773438 -1.410156 0.5 -2.238281 0.5 -3.28125 C 0.5 -4.3125 0.773438 -5.132812 1.328125 -5.75 C 1.878906 -6.375 2.617188 -6.6875 3.546875 -6.6875 Z M 3.546875 -6.6875 "/>
</symbol>
<symbol overflow="visible" id="glyph0-3">
<path style="stroke:none;" d="M 0.890625 -6.5625 L 2.078125 -6.5625 L 4.984375 -1.078125 L 4.984375 -6.5625 L 5.84375 -6.5625 L 5.84375 0 L 4.65625 0 L 1.75 -5.484375 L 1.75 0 L 0.890625 0 Z M 0.890625 -6.5625 "/>
</symbol>
<symbol overflow="visible" id="glyph0-4">
<path style="stroke:none;" d="M 0.890625 -6.5625 L 1.765625 -6.5625 L 1.765625 -3.875 L 5 -3.875 L 5 -6.5625 L 5.890625 -6.5625 L 5.890625 0 L 5 0 L 5 -3.125 L 1.765625 -3.125 L 1.765625 0 L 0.890625 0 Z M 0.890625 -6.5625 "/>
</symbol>
</g>
</defs>
<g id="surface9961">
<rect x="0" y="0" width="300" height="300" style="fill:rgb(100%,100%,100%);fill-opacity:1;stroke:none;"/>
<path style="fill:none;stroke-width:1.2;stroke-linecap:butt;stroke-linejoin:miter;stroke:rgb(80%,80%,0%);stroke-opacity:1;stroke-miterlimit:10;" d="M 111.863281 180.992188 L 119.558594 179.398438 "/>
<path style="fill:none;stroke-width:1.2;stroke-linecap:butt;stroke-linejoin:miter;stroke:rgb(0%,0%,0%);stroke-opacity:1;stroke-miterlimit:10;" d="M 119.558594 179.398438 L 127.257812 177.800781 "/>
<path style="fill:none;stroke-width:1.2;stroke-linecap:butt;stroke-linejoin:miter;stroke:rgb(0%,0%,0%);stroke-opacity:1;stroke-miterlimit:10;" d="M 104.070312 167.339844 L 107.96875 174.167969 "/>
<path style="fill:none;stroke-width:1.2;stroke-linecap:butt;stroke-linejoin:miter;stroke:rgb(80%,80%,0%);stroke-opacity:1;stroke-miterlimit:10;" d="M 107.96875 174.167969 L 111.863281 180.992188 "/>
<path style=" stroke:none;fill-rule:nonzero;fill:rgb(100%,100%,100%);fill-opacity:1;" d="M 108.863281 175.492188 L 114.863281 175.492188 L 114.863281 186.492188 L 108.863281 186.492188 Z M 108.863281 175.492188 "/>
<g style="fill:rgb(80%,80%,0%);fill-opacity:1;">
  <use xlink:href="#glyph0-1" x="108.863281" y="184.155273"/>
</g>
<path style="fill:none;stroke-width:1.2;stroke-linecap:butt;stroke-linejoin:miter;stroke:rgb(0%,0%,0%);stroke-opacity:1;stroke-miterlimit:10;" d="M 127.257812 177.800781 L 128.976562 162.175781 "/>
<path style="fill:none;stroke-width:1.2;stroke-linecap:butt;stroke-linejoin:miter;stroke:rgb(0%,0%,0%);stroke-opacity:1;stroke-miterlimit:10;" d="M 123.75 175.832031 L 125.128906 163.332031 "/>
<path style="fill:none;stroke-width:1.2;stroke-linecap:butt;stroke-linejoin:miter;stroke:rgb(0%,0%,0%);stroke-opacity:1;stroke-miterlimit:10;" d="M 128.976562 162.175781 L 114.648438 155.710938 "/>
<path style="fill:none;stroke-width:1.2;stroke-linecap:butt;stroke-linejoin:miter;stroke:rgb(0%,0%,0%);stroke-opacity:1;stroke-miterlimit:10;" d="M 128.976562 162.175781 L 142.628906 154.382812 "/>
<path style="fill:none;stroke-width:1.2;stroke-linecap:butt;stroke-linejoin:miter;stroke:rgb(0%,0%,0%);stroke-opacity:1;stroke-miterlimit:10;" d="M 114.648438 155.710938 L 104.070312 167.339844 "/>
<path style="fill:none;stroke-width:1.2;stroke-linecap:butt;stroke-linejoin:miter;stroke:rgb(0%,0%,0%);stroke-opacity:1;stroke-miterlimit:10;" d="M 116.328125 159.363281 L 107.867188 168.667969 "/>
<path style="fill:none;stroke-width:1.2;stroke-linecap:butt;stroke-linejoin:miter;stroke:rgb(0%,0%,0%);stroke-opacity:1;stroke-miterlimit:10;" d="M 104.070312 167.339844 L 88.445312 165.621094 "/>
<path style="fill:none;stroke-width:1.2;stroke-linecap:butt;stroke-linejoin:miter;stroke:rgb(0%,0%,0%);stroke-opacity:1;stroke-miterlimit:10;" d="M 86.957031 164.527344 L 82.304688 170.863281 "/>
<path style="fill:none;stroke-width:1.2;stroke-linecap:butt;stroke-linejoin:miter;stroke:rgb(100%,0%,0%);stroke-opacity:1;stroke-miterlimit:10;" d="M 82.304688 170.863281 L 77.65625 177.199219 "/>
<path style="fill:none;stroke-width:1.2;stroke-linecap:butt;stroke-linejoin:miter;stroke:rgb(0%,0%,0%);stroke-opacity:1;stroke-miterlimit:10;" d="M 89.9375 166.714844 L 85.285156 173.050781 "/>
<path style="fill:none;stroke-width:1.2;stroke-linecap:butt;stroke-linejoin:miter;stroke:rgb(100%,0%,0%);stroke-opacity:1;stroke-miterlimit:10;" d="M 85.285156 173.050781 L 80.636719 179.386719 "/>
<path style="fill:none;stroke-width:1.2;stroke-linecap:butt;stroke-linejoin:miter;stroke:rgb(0%,0%,0%);stroke-opacity:1;stroke-miterlimit:10;" d="M 88.445312 165.621094 L 85.285156 158.425781 "/>
<path style="fill:none;stroke-width:1.2;stroke-linecap:butt;stroke-linejoin:miter;stroke:rgb(0%,0%,100%);stroke-opacity:1;stroke-miterlimit:10;" d="M 85.285156 158.425781 L 82.125 151.230469 "/>
<path style=" stroke:none;fill-rule:nonzero;fill:rgb(100%,100%,100%);fill-opacity:1;" d="M 71.144531 172.792969 L 79.144531 172.792969 L 79.144531 183.792969 L 71.144531 183.792969 Z M 71.144531 172.792969 "/>
<g style="fill:rgb(100%,0%,0%);fill-opacity:1;">
  <use xlink:href="#glyph0-2" x="71.144531" y="181.456055"/>
</g>
<path style="fill:none;stroke-width:1.2;stroke-linecap:butt;stroke-linejoin:miter;stroke:rgb(0%,0%,100%);stroke-opacity:1;stroke-miterlimit:10;" d="M 82.125 151.230469 L 74.3125 150.371094 "/>
<path style="fill:none;stroke-width:1.2;stroke-linecap:butt;stroke-linejoin:miter;stroke:rgb(0%,0%,0%);stroke-opacity:1;stroke-miterlimit:10;" d="M 74.3125 150.371094 L 66.5 149.511719 "/>
<path style=" stroke:none;fill-rule:nonzero;fill:rgb(100%,100%,100%);fill-opacity:1;" d="M 75.125 145.730469 L 89.125 145.730469 L 89.125 156.730469 L 75.125 156.730469 Z M 75.125 145.730469 "/>
<g style="fill:rgb(0%,0%,100%);fill-opacity:1;">
  <use xlink:href="#glyph0-3" x="75.125" y="154.393555"/>
  <use xlink:href="#glyph0-4" x="82.102539" y="154.393555"/>
</g>
<path style="fill:none;stroke-width:1.2;stroke-linecap:butt;stroke-linejoin:miter;stroke:rgb(0%,0%,0%);stroke-opacity:1;stroke-miterlimit:10;" d="M 66.5 149.511719 L 60.175781 135.117188 "/>
<path style="fill:none;stroke-width:1.2;stroke-linecap:butt;stroke-linejoin:miter;stroke:rgb(0%,0%,0%);stroke-opacity:1;stroke-miterlimit:10;" d="M 60.175781 135.117188 L 44.550781 133.398438 "/>
<path style="fill:none;stroke-width:1.2;stroke-linecap:butt;stroke-linejoin:miter;stroke:rgb(0%,0%,0%);stroke-opacity:1;stroke-miterlimit:10;" d="M 44.550781 133.398438 L 38.230469 119.007812 "/>
<path style="fill:none;stroke-width:1.2;stroke-linecap:butt;stroke-linejoin:miter;stroke:rgb(0%,0%,0%);stroke-opacity:1;stroke-miterlimit:10;" d="M 44.550781 133.398438 L 35.25 146.070312 "/>
<path style="fill:none;stroke-width:1.2;stroke-linecap:butt;stroke-linejoin:miter;stroke:rgb(0%,0%,0%);stroke-opacity:1;stroke-miterlimit:10;" d="M 142.628906 154.382812 L 156.203125 162.308594 "/>
<path style="fill:none;stroke-width:1.2;stroke-linecap:butt;stroke-linejoin:miter;stroke:rgb(0%,0%,0%);stroke-opacity:1;stroke-miterlimit:10;" d="M 145.851562 151.980469 L 156.710938 158.324219 "/>
<path style="fill:none;stroke-width:1.2;stroke-linecap:butt;stroke-linejoin:miter;stroke:rgb(0%,0%,0%);stroke-opacity:1;stroke-miterlimit:10;" d="M 142.707031 138.664062 L 142.628906 154.382812 "/>
<path style="fill:none;stroke-width:1.2;stroke-linecap:butt;stroke-linejoin:miter;stroke:rgb(0%,0%,0%);stroke-opacity:1;stroke-miterlimit:10;" d="M 156.203125 162.308594 L 169.855469 154.515625 "/>
<path style="fill:none;stroke-width:1.2;stroke-linecap:butt;stroke-linejoin:miter;stroke:rgb(0%,0%,0%);stroke-opacity:1;stroke-miterlimit:10;" d="M 169.855469 154.515625 L 177.316406 156.984375 "/>
<path style="fill:none;stroke-width:1.2;stroke-linecap:butt;stroke-linejoin:miter;stroke:rgb(0%,0%,100%);stroke-opacity:1;stroke-miterlimit:10;" d="M 177.316406 156.984375 L 184.78125 159.449219 "/>
<path style="fill:none;stroke-width:1.2;stroke-linecap:butt;stroke-linejoin:miter;stroke:rgb(0%,0%,0%);stroke-opacity:1;stroke-miterlimit:10;" d="M 169.929688 138.796875 L 169.855469 154.515625 "/>
<path style="fill:none;stroke-width:1.2;stroke-linecap:butt;stroke-linejoin:miter;stroke:rgb(0%,0%,0%);stroke-opacity:1;stroke-miterlimit:10;" d="M 166.226562 140.351562 L 166.164062 152.925781 "/>
<path style="fill:none;stroke-width:1.2;stroke-linecap:butt;stroke-linejoin:miter;stroke:rgb(0%,0%,100%);stroke-opacity:1;stroke-miterlimit:10;" d="M 184.78125 159.449219 L 189.429688 153.113281 "/>
<path style="fill:none;stroke-width:1.2;stroke-linecap:butt;stroke-linejoin:miter;stroke:rgb(0%,0%,0%);stroke-opacity:1;stroke-miterlimit:10;" d="M 189.429688 153.113281 L 194.082031 146.777344 "/>
<path style=" stroke:none;fill-rule:nonzero;fill:rgb(100%,100%,100%);fill-opacity:1;" d="M 177.78125 153.949219 L 191.78125 153.949219 L 191.78125 164.949219 L 177.78125 164.949219 Z M 177.78125 153.949219 "/>
<g style="fill:rgb(0%,0%,100%);fill-opacity:1;">
  <use xlink:href="#glyph0-3" x="177.78125" y="162.612305"/>
  <use xlink:href="#glyph0-4" x="184.758789" y="162.612305"/>
</g>
<path style="fill:none;stroke-width:1.2;stroke-linecap:butt;stroke-linejoin:miter;stroke:rgb(0%,0%,0%);stroke-opacity:1;stroke-miterlimit:10;" d="M 194.082031 146.777344 L 189.492188 140.394531 "/>
<path style="fill:none;stroke-width:1.2;stroke-linecap:butt;stroke-linejoin:miter;stroke:rgb(0%,0%,100%);stroke-opacity:1;stroke-miterlimit:10;" d="M 189.492188 140.394531 L 184.90625 134.015625 "/>
<path style="fill:none;stroke-width:1.2;stroke-linecap:butt;stroke-linejoin:miter;stroke:rgb(0%,0%,0%);stroke-opacity:1;stroke-miterlimit:10;" d="M 190.160156 147.660156 L 186.492188 142.554688 "/>
<path style="fill:none;stroke-width:1.2;stroke-linecap:butt;stroke-linejoin:miter;stroke:rgb(0%,0%,100%);stroke-opacity:1;stroke-miterlimit:10;" d="M 186.492188 142.554688 L 182.820312 137.449219 "/>
<path style="fill:none;stroke-width:1.2;stroke-linecap:butt;stroke-linejoin:miter;stroke:rgb(0%,0%,0%);stroke-opacity:1;stroke-miterlimit:10;" d="M 194.082031 146.777344 L 209.800781 146.855469 "/>
<path style="fill:none;stroke-width:1.2;stroke-linecap:butt;stroke-linejoin:miter;stroke:rgb(0%,0%,100%);stroke-opacity:1;stroke-miterlimit:10;" d="M 184.90625 134.015625 L 177.417969 136.40625 "/>
<path style="fill:none;stroke-width:1.2;stroke-linecap:butt;stroke-linejoin:miter;stroke:rgb(0%,0%,0%);stroke-opacity:1;stroke-miterlimit:10;" d="M 177.417969 136.40625 L 169.929688 138.796875 "/>
<path style=" stroke:none;fill-rule:nonzero;fill:rgb(100%,100%,100%);fill-opacity:1;" d="M 181.90625 128.515625 L 188.90625 128.515625 L 188.90625 139.515625 L 181.90625 139.515625 Z M 181.90625 128.515625 "/>
<g style="fill:rgb(0%,0%,100%);fill-opacity:1;">
  <use xlink:href="#glyph0-3" x="181.90625" y="137.178711"/>
</g>
<path style="fill:none;stroke-width:1.2;stroke-linecap:butt;stroke-linejoin:miter;stroke:rgb(0%,0%,0%);stroke-opacity:1;stroke-miterlimit:10;" d="M 169.929688 138.796875 L 163.144531 134.835938 "/>
<path style="fill:none;stroke-width:1.2;stroke-linecap:butt;stroke-linejoin:miter;stroke:rgb(0%,0%,100%);stroke-opacity:1;stroke-miterlimit:10;" d="M 163.144531 134.835938 L 156.355469 130.871094 "/>
<path style="fill:none;stroke-width:1.2;stroke-linecap:butt;stroke-linejoin:miter;stroke:rgb(0%,0%,100%);stroke-opacity:1;stroke-miterlimit:10;" d="M 156.355469 130.871094 L 149.53125 134.769531 "/>
<path style="fill:none;stroke-width:1.2;stroke-linecap:butt;stroke-linejoin:miter;stroke:rgb(0%,0%,0%);stroke-opacity:1;stroke-miterlimit:10;" d="M 149.53125 134.769531 L 142.707031 138.664062 "/>
<path style="fill:none;stroke-width:1.2;stroke-linecap:butt;stroke-linejoin:miter;stroke:rgb(0%,0%,100%);stroke-opacity:1;stroke-miterlimit:10;" d="M 156.824219 134.863281 L 151.363281 137.980469 "/>
<path style="fill:none;stroke-width:1.2;stroke-linecap:butt;stroke-linejoin:miter;stroke:rgb(0%,0%,0%);stroke-opacity:1;stroke-miterlimit:10;" d="M 151.363281 137.980469 L 145.902344 141.097656 "/>
<path style=" stroke:none;fill-rule:nonzero;fill:rgb(100%,100%,100%);fill-opacity:1;" d="M 153.355469 125.371094 L 160.355469 125.371094 L 160.355469 136.371094 L 153.355469 136.371094 Z M 153.355469 125.371094 "/>
<g style="fill:rgb(0%,0%,100%);fill-opacity:1;">
  <use xlink:href="#glyph0-3" x="153.355469" y="134.03418"/>
</g>
<path style="fill:none;stroke-width:1.2;stroke-linecap:butt;stroke-linejoin:miter;stroke:rgb(0%,0%,0%);stroke-opacity:1;stroke-miterlimit:10;" d="M 209.800781 146.855469 L 217.59375 160.507812 "/>
<path style="fill:none;stroke-width:1.2;stroke-linecap:butt;stroke-linejoin:miter;stroke:rgb(0%,0%,0%);stroke-opacity:1;stroke-miterlimit:10;" d="M 213.792969 146.386719 L 220.027344 157.308594 "/>
<path style="fill:none;stroke-width:1.2;stroke-linecap:butt;stroke-linejoin:miter;stroke:rgb(0%,0%,0%);stroke-opacity:1;stroke-miterlimit:10;" d="M 217.726562 133.28125 L 209.800781 146.855469 "/>
<path style="fill:none;stroke-width:1.2;stroke-linecap:butt;stroke-linejoin:miter;stroke:rgb(0%,0%,0%);stroke-opacity:1;stroke-miterlimit:10;" d="M 217.59375 160.507812 L 233.3125 160.582031 "/>
<path style="fill:none;stroke-width:1.2;stroke-linecap:butt;stroke-linejoin:miter;stroke:rgb(0%,0%,0%);stroke-opacity:1;stroke-miterlimit:10;" d="M 233.3125 160.582031 L 241.238281 147.007812 "/>
<path style="fill:none;stroke-width:1.2;stroke-linecap:butt;stroke-linejoin:miter;stroke:rgb(0%,0%,0%);stroke-opacity:1;stroke-miterlimit:10;" d="M 230.910156 157.359375 L 237.25 146.5 "/>
<path style="fill:none;stroke-width:1.2;stroke-linecap:butt;stroke-linejoin:miter;stroke:rgb(0%,0%,0%);stroke-opacity:1;stroke-miterlimit:10;" d="M 241.238281 147.007812 L 249.097656 147.046875 "/>
<path style="fill:none;stroke-width:1.2;stroke-linecap:butt;stroke-linejoin:miter;stroke:rgb(100%,0%,0%);stroke-opacity:1;stroke-miterlimit:10;" d="M 249.097656 147.046875 L 256.957031 147.085938 "/>
<path style="fill:none;stroke-width:1.2;stroke-linecap:butt;stroke-linejoin:miter;stroke:rgb(0%,0%,0%);stroke-opacity:1;stroke-miterlimit:10;" d="M 241.238281 147.007812 L 233.445312 133.355469 "/>
<path style="fill:none;stroke-width:1.2;stroke-linecap:butt;stroke-linejoin:miter;stroke:rgb(100%,0%,0%);stroke-opacity:1;stroke-miterlimit:10;" d="M 256.957031 147.085938 L 260.855469 153.914062 "/>
<path style="fill:none;stroke-width:1.2;stroke-linecap:butt;stroke-linejoin:miter;stroke:rgb(0%,0%,0%);stroke-opacity:1;stroke-miterlimit:10;" d="M 260.855469 153.914062 L 264.75 160.738281 "/>
<path style=" stroke:none;fill-rule:nonzero;fill:rgb(100%,100%,100%);fill-opacity:1;" d="M 252.957031 141.585938 L 260.957031 141.585938 L 260.957031 152.585938 L 252.957031 152.585938 Z M 252.957031 141.585938 "/>
<g style="fill:rgb(100%,0%,0%);fill-opacity:1;">
  <use xlink:href="#glyph0-2" x="252.957031" y="150.249023"/>
</g>
<path style="fill:none;stroke-width:1.2;stroke-linecap:butt;stroke-linejoin:miter;stroke:rgb(0%,0%,0%);stroke-opacity:1;stroke-miterlimit:10;" d="M 233.445312 133.355469 L 217.726562 133.28125 "/>
<path style="fill:none;stroke-width:1.2;stroke-linecap:butt;stroke-linejoin:miter;stroke:rgb(0%,0%,0%);stroke-opacity:1;stroke-miterlimit:10;" d="M 231.855469 137.046875 L 219.28125 136.984375 "/>
</g>
</svg>

<svg xmlns="http://www.w3.org/2000/svg" xmlns:xlink="http://www.w3.org/1999/xlink" width="300pt" height="300pt" viewBox="0 0 300 300"><defs><symbol overflow="visible"><path d="M.453 1.594v-7.938h4.5v7.938zm.5-.5h3.5v-6.938h-3.5zm0 0"/></symbol><symbol overflow="visible" id="a"><path d="M4.813-6.344v.86c-.336-.157-.653-.27-.954-.344-.294-.082-.58-.125-.86-.125-.492 0-.867.094-1.125.28-.262.19-.39.454-.39.798 0 .293.085.512.265.656.176.15.504.267.984.36l.547.11c.658.125 1.142.352 1.454.672.32.312.485.734.485 1.265 0 .637-.216 1.122-.642 1.454-.43.325-1.055.485-1.875.485-.312 0-.648-.04-1-.11C1.36-.046 1-.147.625-.296v-.906c.352.2.703.35 1.047.453.35.105.695.156 1.03.156.5 0 .884-.097 1.157-.297.28-.196.42-.485.42-.86 0-.32-.1-.57-.296-.75-.2-.176-.523-.313-.968-.406l-.547-.11C1.81-3.148 1.33-3.36 1.03-3.64.74-3.923.595-4.313.595-4.813c0-.57.203-1.024.61-1.36.405-.344.968-.516 1.687-.516.313 0 .626.032.938.094.32.055.65.137.985.25zm0 0"/></symbol><symbol overflow="visible" id="b"><path d="M3.547-5.953c-.65 0-1.164.242-1.547.72-.375.48-.563 1.13-.563 1.952 0 .835.188 1.49.563 1.967.383.48.898.72 1.547.72.644 0 1.156-.24 1.53-.72.376-.476.564-1.132.564-1.968 0-.822-.187-1.474-.562-1.954-.375-.477-.887-.72-1.53-.72zm0-.734c.914 0 1.648.312 2.203.937.55.617.828 1.438.828 2.47 0 1.042-.277 1.87-.828 2.483-.555.617-1.29.922-2.203.922-.93 0-1.668-.305-2.22-.922C.774-1.41.5-2.237.5-3.28c0-1.033.273-1.853.828-2.47.55-.625 1.29-.938 2.22-.938zm0 0"/></symbol><symbol overflow="visible" id="c"><path d="M.89-6.563H2.08l2.906 5.485v-5.484h.86V0H4.656L1.75-5.484V0H.89zm0 0"/></symbol><symbol overflow="visible" id="d"><path d="M.89-6.563h.876v2.688H5v-2.688h.89V0H5v-3.125H1.766V0H.89zm0 0"/></symbol></defs><g><path fill="#fff" d="M0 0h300v300H0z"/><path d="M111.863 180.992l7.696-1.594" stroke-width="1.2" stroke="#cc0" stroke-miterlimit="10" fill="none"/><path d="M119.56 179.398l7.698-1.597M104.07 167.34l3.9 6.828" stroke-width="1.2" stroke="#000" stroke-miterlimit="10" fill="none"/><path d="M107.97 174.168l3.893 6.824" stroke-width="1.2" stroke="#cc0" stroke-miterlimit="10" fill="none"/><path d="M108.863 175.492h6v11h-6zm0 0" fill="#fff"/><use xlink:href="#a" x="108.863" y="184.155" fill="#cc0"/><path d="M127.258 177.8l1.72-15.624M123.75 175.832l1.38-12.5M128.977 162.176l-14.33-6.465M128.977 162.176l13.652-7.793M114.648 155.71l-10.578 11.63M116.328 159.363l-8.46 9.305M104.07 167.34l-15.625-1.72M86.957 164.527l-4.652 6.336" stroke-width="1.2" stroke="#000" stroke-miterlimit="10" fill="none"/><path d="M82.305 170.863l-4.65 6.336" stroke-width="1.2" stroke="#f00" stroke-miterlimit="10" fill="none"/><path d="M89.938 166.715l-4.653 6.336" stroke-width="1.2" stroke="#000" stroke-miterlimit="10" fill="none"/><path d="M85.285 173.05l-4.648 6.337" stroke-width="1.2" stroke="#f00" stroke-miterlimit="10" fill="none"/><path d="M88.445 165.62l-3.16-7.194" stroke-width="1.2" stroke="#000" stroke-miterlimit="10" fill="none"/><path d="M85.285 158.426l-3.16-7.196" stroke-width="1.2" stroke="#00f" stroke-miterlimit="10" fill="none"/><path d="M71.145 172.793h8v11h-8zm0 0" fill="#fff"/><use xlink:href="#b" x="71.145" y="181.456" fill="#f00"/><path d="M82.125 151.23l-7.813-.86" stroke-width="1.2" stroke="#00f" stroke-miterlimit="10" fill="none"/><path d="M74.313 150.37l-7.813-.858" stroke-width="1.2" stroke="#000" stroke-miterlimit="10" fill="none"/><path d="M75.125 145.73h14v11h-14zm0 0" fill="#fff"/><g fill="#00f"><use xlink:href="#c" x="75.125" y="154.394"/><use xlink:href="#d" x="82.103" y="154.394"/></g><path d="M66.5 149.512l-6.324-14.395M60.176 135.117l-15.625-1.72M44.55 133.398l-6.32-14.39M44.55 133.398l-9.3 12.672M142.63 154.383l13.573 7.926M145.852 151.98l10.86 6.344M142.707 138.664l-.078 15.72M156.203 162.31l13.652-7.794M169.855 154.516l7.46 2.468" stroke-width="1.2" stroke="#000" stroke-miterlimit="10" fill="none"/><path d="M177.316 156.984l7.465 2.465" stroke-width="1.2" stroke="#00f" stroke-miterlimit="10" fill="none"/><path d="M169.93 138.797l-.075 15.72M166.227 140.352l-.063 12.574" stroke-width="1.2" stroke="#000" stroke-miterlimit="10" fill="none"/><path d="M184.78 159.45l4.65-6.337" stroke-width="1.2" stroke="#00f" stroke-miterlimit="10" fill="none"/><path d="M189.43 153.113l4.652-6.336" stroke-width="1.2" stroke="#000" stroke-miterlimit="10" fill="none"/><path d="M177.78 153.95h14v11h-14zm0 0" fill="#fff"/><g fill="#00f"><use xlink:href="#c" x="177.781" y="162.612"/><use xlink:href="#d" x="184.759" y="162.612"/></g><path d="M194.082 146.777l-4.59-6.382" stroke-width="1.2" stroke="#000" stroke-miterlimit="10" fill="none"/><path d="M189.492 140.395l-4.586-6.38" stroke-width="1.2" stroke="#00f" stroke-miterlimit="10" fill="none"/><path d="M190.16 147.66l-3.668-5.105" stroke-width="1.2" stroke="#000" stroke-miterlimit="10" fill="none"/><path d="M186.492 142.555l-3.672-5.106" stroke-width="1.2" stroke="#00f" stroke-miterlimit="10" fill="none"/><path d="M194.082 146.777l15.72.078" stroke-width="1.2" stroke="#000" stroke-miterlimit="10" fill="none"/><path d="M184.906 134.016l-7.488 2.39" stroke-width="1.2" stroke="#00f" stroke-miterlimit="10" fill="none"/><path d="M177.418 136.406l-7.488 2.39" stroke-width="1.2" stroke="#000" stroke-miterlimit="10" fill="none"/><path d="M181.906 128.516h7v11h-7zm0 0" fill="#fff"/><use xlink:href="#c" x="181.906" y="137.179" fill="#00f"/><path d="M169.93 138.797l-6.785-3.96" stroke-width="1.2" stroke="#000" stroke-miterlimit="10" fill="none"/><path d="M163.145 134.836l-6.79-3.965M156.355 130.87l-6.824 3.9" stroke-width="1.2" stroke="#00f" stroke-miterlimit="10" fill="none"/><path d="M149.53 134.77l-6.823 3.894" stroke-width="1.2" stroke="#000" stroke-miterlimit="10" fill="none"/><path d="M156.824 134.863l-5.46 3.117" stroke-width="1.2" stroke="#00f" stroke-miterlimit="10" fill="none"/><path d="M151.363 137.98l-5.46 3.118" stroke-width="1.2" stroke="#000" stroke-miterlimit="10" fill="none"/><path d="M153.355 125.37h7v11h-7zm0 0" fill="#fff"/><use xlink:href="#c" x="153.355" y="134.034" fill="#00f"/><path d="M209.8 146.855l7.794 13.653M213.793 146.387l6.234 10.922M217.727 133.28l-7.926 13.575M217.594 160.508l15.72.074M233.313 160.582l7.925-13.574M230.91 157.36l6.34-10.86M241.238 147.008l7.86.04" stroke-width="1.2" stroke="#000" stroke-miterlimit="10" fill="none"/><path d="M249.098 147.047l7.86.04" stroke-width="1.2" stroke="#f00" stroke-miterlimit="10" fill="none"/><path d="M241.238 147.008l-7.793-13.653" stroke-width="1.2" stroke="#000" stroke-miterlimit="10" fill="none"/><path d="M256.957 147.086l3.898 6.828" stroke-width="1.2" stroke="#f00" stroke-miterlimit="10" fill="none"/><path d="M260.855 153.914l3.895 6.824" stroke-width="1.2" stroke="#000" stroke-miterlimit="10" fill="none"/><path d="M252.957 141.586h8v11h-8zm0 0" fill="#fff"/><use xlink:href="#b" x="252.957" y="150.249" fill="#f00"/><path d="M233.445 133.355l-15.718-.074M231.855 137.047l-12.574-.063" stroke-width="1.2" stroke="#000" stroke-miterlimit="10" fill="none"/></g></svg>
